X:280
T:Polska efter Maria Sohlberg
R:Polska
S:Efter Anders Edvin Pettersson
Z:C-G Magnusson, 2009-02-25
O:Munkedal, Bohuslän
B:Svenska Låtar Dalsland nr 280
Q:130
M:3/4
L:1/8
K:C
ge/g/ c'2 c(e | f)e/f/ a2 A>c | de (3fdf (3ece | (3dBd c>(a g2) |
ge/g/ c'2 c(e | f)e/f/ a2 A>c | de (3fdf (3ece | (3dBd c2 z2 :|
|: GF EG ce | dc Bc de | ef (3fdf (3ece | (3dBd c>A G2 |
GF EG ce | dc Bc de | ef (3fdf (3ece | (3dBd c2 z2 :|

